X:1
T:Widdecombe Fair
M:3/4
L:1/4
K:G
 D| G2 G| B2 G| F E D| G3| G3/2 G/2 G| B3/2 A/2 G| F F G| A3| G G G|\
 B- A G| F E D| E2 D| E/2E/2 z D| E/2E/2 z D/2D/2| E/2E/2 z D/2D/2|\
 E/2E/2 z D/2D/2| E/2E/2 z D/2D/2| E z D| D c B| A G F| d3-| d2 c|\
 B3/2 c/2 B| A G F| G3-| G2||
